!!!OTL: Taohuangge
!!!ARE: Asia, China,ÿHubei Tianmen
!! I, 401
!!!SCT: C2150
!!!YEM: Copyright 1995, estate of Helmut Schaffrath.
**kern
*ICvox
*Ivox
*M2/4
*k[f#]
*G:
{16dd
16b
16b
16a
16b
16a
16b
16dd
=1
16a
16b
8a
4r
=2
16a
16b
16a
16g
8e
16g
16e
=3
16a
16b
8d
4r}
=4
{16e
16d
16e
16g
16a
16b
16a
16g
=5
16e
16d
16e
16g
8d
8d
=6
16e
16g
16d
16e
4g
=7
16g
16a
16b
16dd
8.a
16b
=8
8e
16g
16d
8.e
16d
=9
2d}
==
!!!AGN: Wuge, Dengdiao, Sanbanggu
!!!ONB: ESAC (Essen Associative Code) Database: SENGANSU
!!!AMT: simple duple
!!!AIN: vox
!!!EED: Helmut Schaffrath
!!!EEV: 1.0
*-
